www/assets/icons/unfold_more_double.svg

<svg width="24" height="24" viewBox="0 0 24 24" xmlns="http://www.w3.org/2000/svg" fill='currentColor'><path d="M12 7.83L15.17 11L16.58 9.59L12 5L7.40997 9.59L8.82997 11L12 7.83ZM12 2.83L15.17 6L16.58 4.59L12 0L7.40997 4.59L8.82997 6L12 2.83ZM12 21.17L8.82997 18L7.41997 19.41L12 24L16.59 19.41L15.17 18L12 21.17ZM12 16.17L8.82997 13L7.41997 14.41L12 19L16.59 14.41L15.17 13L12 16.17Z"/></svg>

<svg xmlns="http://www.w3.org/2000/svg" width="24" height="24" viewBox="0 0 24 24" fill='currentColor'><path d="M12 7.83 15.17 11l1.41-1.41L12 5 7.41 9.59 8.83 11zm0-5L15.17 6l1.41-1.41L12 0 7.41 4.59 8.83 6zm0 18.34L8.83 18l-1.41 1.41L12 24l4.59-4.59L15.17 18zm0-5L8.83 13l-1.41 1.41L12 19l4.59-4.59L15.17 13z"/></svg>
